X:129 
T:Lord McDonald's (reel) 
B:CRE3.200 (An Tiarna Mac DÃÂÃÂÃÂÃÂ³naill)
F:file ID: cre.3/129lord_mc
N:Michael Coleman's classic recording of this tune was 
played I-II-III-II-I
R:reel
L:1/8
Q:180
M:C
K:G
"I"
G|DGBG dGBG|c2Bc AGEG|DGG2 AGGE|DEDC B,G, G,2|
DGBG dGBG|c2Bc AGEG|BcBA GAGE|DEGA BGG2||
"II"
Bdd/e/d dBGB|defg aged|Bdd/e/d dBGB|ABcA BGG2|
Bdd/e/d dBGB|defg aged|Bdd/e/d g3e|dBAc BGGB||
"III"
dg (3bag agbg|dgbg ageg|dg (3bag agbg|dedc BGGB|
dg (3bag agbg|dgbg ageg|(3bag (3agf gfec|dega bgg2||

%%%

